src/icons/main-scope.svg

<svg enable-background="new 0 0 13 13" viewBox="0 0 13 13" xmlns="http://www.w3.org/2000/svg"><path d="m10.2 0c-.2 0-.4 0-.7.1-1 .3-1.9 1.3-2 2.4-.1.6 0 1.1.2 1.6l-6.8 7.1c-.4.4-.4 1.1 0 1.5s1 .4 1.4 0l3.9-4 3.7 3.9c.5.6 1.4.6 1.9 0s.5-1.4 0-2l-3.8-3.9 1-1.1c.5.2 1 .3 1.5.2 1.1-.2 2-1 2.3-2.2.1-.5.1-.9 0-1.3-.1-.3-.4-.4-.6-.2l-.7.8c-.4.4-1 .4-1.4 0s-.4-1.1 0-1.5l.9-.7c.2-.2.1-.6-.2-.6-.2-.1-.4-.1-.6-.1zm-9 .2c-.2 0-.3.1-.4.2l-.6.6c-.2.3-.3.7-.1 1l.7 1c.2.4.7.6 1.1.6h.4l1.9 2 1-1-1.9-2v-.4c0-.4-.3-.9-.6-1.2l-1-.7c-.2-.1-.3-.1-.5-.1z" fill="#4d5969"/></svg>

<?xml version="1.0" encoding="utf-8"?>
<!-- Generator: Adobe Illustrator 20.1.0, SVG Export Plug-In . SVG Version: 6.00 Build 0)  -->
<svg version="1.1" id="Layer_1" xmlns="http://www.w3.org/2000/svg" xmlns:xlink="http://www.w3.org/1999/xlink" x="0px" y="0px"
	 viewBox="0 0 13 13" style="enable-background:new 0 0 13 13;" xml:space="preserve">
<style type="text/css">
	.st0{fill:#4D5969;}
</style>
<title>HDL/Icon/Standard/scope</title>
<desc>Created with Sketch.</desc>
<g id="Colors">
	<g id="Main-Icons" transform="translate(-622.000000, -1394.000000)">
		<g id="Scope" transform="translate(602.000000, 1376.000000)">
			<g id="HDL_x2F_Icon_x2F_Standard_x2F_scope" transform="translate(20.000000, 18.000000)">
				<path id="Shape" class="st0" d="M10.2,0C10,0,9.8,0,9.5,0.1C8.5,0.4,7.6,1.4,7.5,2.5c-0.1,0.6,0,1.1,0.2,1.6l-6.8,7.1
					c-0.4,0.4-0.4,1.1,0,1.5c0.4,0.4,1,0.4,1.4,0l3.9-4l3.7,3.9c0.5,0.6,1.4,0.6,1.9,0c0.5-0.6,0.5-1.4,0-2L8,6.7l1-1.1
					c0.5,0.2,1,0.3,1.5,0.2c1.1-0.2,2-1,2.3-2.2c0.1-0.5,0.1-0.9,0-1.3c-0.1-0.3-0.4-0.4-0.6-0.2l-0.7,0.8c-0.4,0.4-1,0.4-1.4,0
					c-0.4-0.4-0.4-1.1,0-1.5L11,0.7c0.2-0.2,0.1-0.6-0.2-0.6C10.6,0,10.4,0,10.2,0z M1.2,0.2c-0.2,0-0.3,0.1-0.4,0.2L0.2,1
					C0,1.3-0.1,1.7,0.1,2l0.7,1C1,3.4,1.5,3.6,1.9,3.6h0.4l1.9,2l1-1l-1.9-2V2.2C3.3,1.8,3,1.3,2.7,1l-1-0.7
					C1.5,0.2,1.4,0.2,1.2,0.2z"/>
			</g>
		</g>
	</g>
</g>
</svg>
